!!!!SEGMENT: Ser1002b-Missa_Novem_lectionum-Gloria.krn
!!!id: Ser1002b
!!!OTL: Gloria
!!!AGN: Mass; Gloria
!!!voices: 2-4
!!!COM: Claudin de Sermisy
!!!OPR: Missa Novem lectionum
**kern	**kern	**kern	**kern
*part4	*part3	*part2	*part1
*staff4	*staff3	*staff2	*staff1
*I"Bassus	*I"Tenor	*I"Altus	*I"Superius
*I'B	*I'T	*I'A	*I'S
*clefF4	*clefGv2	*clefGv2	*clefG2
*k[]	*k[]	*k[]	*k[]
*M2/1	*M2/1	*M2/1	*M2/1
*met(C)	*met(C)	*met(C)	*met(C)
!!section: Et in terra pax
!!!OMD: Et in terra pax
=1	=1	=1	=1
!	!	!	!LO:TX:a:t=Cantus firmus&colon; Gloria "Orbis factor" \n
0r	0r	1r	1c
.	.	1G	2d
.	.	.	2e
=2	=2	=2	=2
1r	0r	2A	1f
.	.	2B	.
2r	.	1c	1e
2C	.	.	.
=3	=3	=3	=3
2D	0r	1B	1d
2E	.	.	.
1F	.	2A	1r
.	.	[2d	.
=4	=4	=4	=4
1E	1G	2d]	0r
.	.	2c	.
2D	1A	[1d	.
2D	.	.	.
=5	=5	=5	=5
1G	1B	2d]	0r
.	.	4c	.
.	.	4B	.
2F	[1c	2A	.
2E	.	2G	.
=6	=6	=6	=6
1F	2c]	1A	0r
.	4B	.	.
.	4A	.	.
1G	1B	2r	.
.	.	[2d	.
=7	=7	=7	=7
1F	1A	2d]	0r
.	.	2c	.
2.D	1A	2.d	.
4E	.	8cL	.
.	.	8BJ	.
=8	=8	=8	=8
2F	1d	2A	2r
2G	.	2B	2d
1E	2c	1G	1g
.	2B	.	.
=9	=9	=9	=9
1r	1c	1A	2f
.	.	.	2e
2r	1d	1D	1f
2D	.	.	.
=10	=10	=10	=10
2E	2r	2G	1g
2C	2c	2E	.
1D	2A	1F	2r
.	2B	.	[2f
=11	=11	=11	=11
1C	1c	1G	2f]
.	.	.	2e
1G	1B	1r	2d
.	.	.	2e
=12	=12	=12	=12
1D	0A	1r	1f
1r	.	1c	1e
=13	=13	=13	=13
1r	1D	2A	2.d
.	.	2B	.
.	.	.	4e
1F	1r	1c	4f
.	.	.	4g
.	.	.	[2a
=14	=14	=14	=14
2D	1r	1B	2a]
2E	.	.	2g
2F	2r	[1A	2.a
[2D	2F	.	.
.	.	.	4g
=15	=15	=15	=15
2D]	2D	0A_	2f
2C	2E	.	1e
1D	1F	.	.
.	.	.	[2d
=16	=16	=16	=16
1AA	1E	1A]	2d]
.	.	.	2c#i
[1D	[1D	1r	[1d
=17	=17	=17	=17
1D]	1D]	1A	1d]
1r	2r	1G	1r
.	2E	.	.
=18	=18	=18	=18
1r	1G	1B	1d
2r	1A	2c	1c
2AA	.	4B	.
.	.	4A	.
=19	=19	=19	=19
1C	1E	2G	1e
.	.	2.A	.
1D	1r	.	1f
.	.	4D	.
.	.	[2d	.
=20	=20	=20	=20
1AA	1A	2d]	1e
.	.	2c#i	.
1D	1A	1d	[1d
=21	=21	=21	=21
1D	1B	0r	1d]
2.E	2.G	.	1r
4D	4A	.	.
=22	=22	=22	=22
2D	2B	1r	0r
2C	2c	.	.
1D	2A	1A	.
.	2F	.	.
=23	=23	=23	=23
0C	0c	1A	0r
.	.	2.G	.
.	.	4A	.
=24	=24	=24	=24
0GG	0r	2B	1d
.	.	1c	.
.	.	.	1d
.	.	2B	.
=25	=25	=25	=25
0r	0r	2A	1c
.	.	2F	.
.	.	2G	1e
.	.	2A	.
=26	=26	=26	=26
0r	1r	2D	1f
.	.	1d	.
.	2r	.	1e
.	[2A	2c#i	.
=27	=27	=27	=27
1D	2A]	1d	1d
.	2B	.	.
2E	2c	1r	1r
2F	[2d	.	.
=28	=28	=28	=28
2.G	2d]	0r	2r
.	2B	.	2d
4F	.	.	.
2E	2c	.	2e
2D	2d	.	2f
=29	=29	=29	=29
1E	2.G	0r	1.g
.	4A	.	.
1r	4B	.	.
.	4c	.	.
.	4d	.	2f
.	4B	.	.
=30	=30	=30	=30
1r	2.c	0r	4e
.	.	.	4f
.	.	.	4g
.	4B	.	4e
2r	2A	.	2f
2GG	2G	.	[2e
=31	=31	=31	=31
2AA	1F	1r	2e]
2BB	.	.	2d
2.C	[1E	2r	[1e
.	.	2G	.
4BB	.	.	.
=32	=32	=32	=32
2AA	1E]	2A	0e]
2GG	.	2B	.
1AA	2r	2.c	.
.	2C	.	.
.	.	4B	.
=33	=33	=33	=33
0r	2D	2A	1r
.	2E	2G	.
.	2.F	[1A	2r
.	.	.	2c
.	4E	.	.
=34	=34	=34	=34
0r	2D	0A_	2d
.	2C	.	2e
.	2.D	.	2.f
.	4E	.	4e
=35	=35	=35	=35
1r	1F	1A]	2d
.	.	.	2c
[1GG	2r	[1B-X	1d
.	[2G	.	.
=36	=36	=36	=36
2GG]	2G]	2B-]	2r
2GG	2G	2B-i	1d
2GG	2G	2B-i	.
2GG	2G	2B-i	2d
=37	=37	=37	=37
1.BB-X	1.D	1.F	2d
.	.	.	2d
.	.	.	1d
2BB-i	2D	2G	.
=38	=38	=38	=38
0AA	0E	1A	1c
.	.	[1c	1e
=39	=39	=39	=39
4FF	1A	1c]	1f
4GG	.	.	.
4AA	.	.	.
4BB	.	.	.
2C	2G	4c	2e
.	.	4B	.
2D	2F	4A	[2d
.	.	4G	.
=40	=40	=40	=40
1AA	1E	1A	2d]
.	.	.	2c#i
[1D	[1D	1F	[1d
=41	=41	=41	=41
1D]	0D]	2r	0d]
.	.	2A	.
2r	.	1d	.
2D	.	.	.
=42	=42	=42	=42
1G	0r	2c	0r
.	.	2B	.
2F	.	2.c	.
2E	.	.	.
.	.	8BL	.
.	.	8cJ	.
=43	=43	=43	=43
2.F	0r	1d	1r
8EL	.	.	.
8DJ	.	.	.
[1G	.	4d	2r
.	.	4c	.
.	.	4B	2d
.	.	4A	.
=44	=44	=44	=44
1G]	1r	2B	1g
.	.	1d	.
1r	1A	.	2f
.	.	2c	2e
=45	=45	=45	=45
0r	1d	2d	2.f
.	.	2D	.
.	.	.	8eL
.	.	.	8fJ
.	2c	1E	1g
.	2B	.	.
=46	=46	=46	=46
1r	2.c	2r	1r
.	.	1A	.
.	8BL	.	.
.	8cJ	.	.
1D	2d	.	1f
.	2A	[2d	.
=47	=47	=47	=47
1G	3.B	2d]	2d
.	6c	2B	2e
.	3d	.	.
2F	2A	2.c	2f
2E	2G	.	[2g
.	.	8BL	.
.	.	8cJ	.
=48	=48	=48	=48
1F	1A	2d	2g]
.	.	1c	1f
1G	1r	.	.
.	.	2B	2e
=49	=49	=49	=49
1F	2r	2A	2f
.	1c	1f	1a
2D	.	.	.
2E	2B	2e	2g
=50	=50	=50	=50
1F	2.A	2c	1a
.	.	2d	.
.	4B	.	.
1E	1c	1G	[1g
=51	=51	=51	=51
[0D	1B	1d	2g]
.	.	.	4f
.	.	.	4e
.	[1A	2r	1f
.	.	[2d	.
=52	=52	=52	=52
0D]	1A]	2d]	2r
.	.	2d	1a
.	2r	1d	.
.	2A	.	2a
=53	=53	=53	=53
0r	2A	1c	1a
.	2A	.	.
.	1c	1e	1g
=54	=54	=54	=54
0r	2.F	1f	2.a
.	4G	.	4b
.	2A	2e	2cc
.	2B	[2d	[2b
=55	=55	=55	=55
1r	2G	2d]	4b]
.	.	.	4a
.	2A	2c	2.a
2r	1D	[1d	.
.	.	.	4g
[2D	.	.	4f
.	.	.	4e
=56	=56	=56	=56
2D]	2r	0d]	0f
2D	1A	.	.
1D	.	.	.
.	2A	.	.
=57	=57	=57	=57
1C	1A	0r	2.e
.	.	.	4f
1E	1G	.	1g
=58	=58	=58	=58
1F	2.A	1r	1c
.	4B	.	.
2E	2c	2r	1r
[2D	[2B	[2d	.
=59	=59	=59	=59
4D]	2B]	2d]	0r
4C	.	.	.
4BB	1A	2d	.
4AA	.	.	.
1BB	.	1d	.
.	2G#i	.	.
=60	=60	=60	=60
0AA	1A	1c	1.a
.	2r	[1e	.
.	[2A	.	2a
=61	=61	=61	=61
0r	2A]	2e]	1a
.	2F	1f	.
.	2.c	.	1g
.	.	[2e	.
.	4B	.	.
=62	=62	=62	=62
0r	2G	4e]	1b
.	.	4d	.
.	2B	1d	.
.	1A	.	1cc
.	.	2c	.
=63	=63	=63	=63
2r	2G	[0d	2b
1D	2.F	.	2.a
.	4E	.	4g
2D	4F	.	4f
.	4G	.	4e
=64	=64	=64	=64
1D	2.A	1d]	1f
.	4B	.	.
1C	1c	2r	2e
.	.	[2e	[2a
=65	=65	=65	=65
1E	1B	2e]	2a]
.	.	2e	2g
1F	1A	2.c	2a
.	.	.	2f
.	.	4A	.
=66	=66	=66	=66
2E	2G	4B	2g
.	.	4c	.
2.D	2A	2d	2f
.	2F	2A	2d
4C	.	.	.
4BB	[2G	[2B	[2e
4AA	.	.	.
=67	=67	=67	=67
1BB	4G]	2B]	4e]
.	4F	.	4d
.	4E	2G	1d
.	4D	.	.
1AA	1E	1A	.
.	.	.	2c#i
=68	=68	=68	=68
0Dl	0Dl	0Al	0dl
=69||	=69||	=69||	=69||
*M2/1	*M2/1	*M2/1	*M2/1
*met(C|)	*met(C|)	*met(C|)	*met(C|)
!!section: Domine fili
!!!OMD: Domine fili
0r	0r	0r	1d
.	.	.	1g
=70	=70	=70	=70
0r	0r	1A	2f
.	.	.	2e
.	.	1d	1f
=71	=71	=71	=71
0r	0r	2c	1.g
.	.	2B	.
.	.	2.c	.
.	.	.	2a
.	.	8BL	.
.	.	8cJ	.
=72	=72	=72	=72
0r	0r	0d	2b
.	.	.	1a
.	.	.	4g
.	.	.	4f
=73	=73	=73	=73
0r	0r	2r	1e
.	.	1c	.
.	.	.	2r
.	.	2A	[2f
=74	=74	=74	=74
0r	0r	1B	2f]
.	.	.	2d
.	.	2A	2e
.	.	4F	[2f
.	.	4G	.
=75	=75	=75	=75
0r	0r	4A	2f]
.	.	4B	.
.	.	1c	2e
.	.	.	1d
.	.	2B	.
=76	=76	=76	=76
0r	0r	0c	1c
.	.	.	1r
=77	=77	=77	=77
0r	0r	1r	1g
.	.	1d	2.f
.	.	.	4g
=78	=78	=78	=78
0r	0r	1c	2a
.	.	.	2.g
.	.	1e	.
.	.	.	4a
.	.	.	4b
.	.	.	4cc
=79	=79	=79	=79
0r	0r	2.f	2a
.	.	.	1cc
.	.	4e	.
.	.	2c	.
.	.	2d	4b
.	.	.	4a
=80	=80	=80	=80
0r	0r	2e	2g
.	.	2.f	2a
.	.	.	2d
.	.	4e	.
.	.	[2d	2f
=81	=81	=81	=81
0r	0r	2d]	1e
.	.	2c	.
.	.	2d	4d
.	.	.	4e
.	.	4D	4f
.	.	4E	4g
=82	=82	=82	=82
0r	0r	4F	4a
.	.	4G	4b
.	.	4A	2cc
.	.	4B	.
.	.	2c	2.g
.	.	[2G	.
.	.	.	4a
=83	=83	=83	=83
0r	0r	4G]	4b
.	.	4A	4cc
.	.	4B	2dd
.	.	4c	.
.	.	2d	2a
.	.	2A	[2cc
=84	=84	=84	=84
0r	0r	2.c	4cc]
.	.	.	4b
.	.	.	4a
.	.	4B	4g
.	.	2A	2f
.	.	2G	[2g
=85	=85	=85	=85
0r	0r	1B	4g]
.	.	.	4f
.	.	.	4d
.	.	.	4e
.	.	2A	2f
.	.	[2G	[2e
=86	=86	=86	=86
0r	0r	4G]	2e]
.	.	4F	.
.	.	2D	1d
.	.	1E	.
.	.	.	2c#i
=87	=87	=87	=87
0r	0r	0Dl	0dl
=88||	=88||	=88||	=88||
*M2/1	*M2/1	*M2/1	*M2/1
*met(C|)	*met(C|)	*met(C|)	*met(C|)
!!section: Domine Deus
!!!OMD: Domine Deus
0r	2.A	0r	0r
.	4B	.	.
.	2c	.	.
.	[2d	.	.
=89	=89	=89	=89
1D	4d]	0r	0r
.	4c	.	.
.	4B	.	.
.	4A	.	.
1G	2B	.	.
.	[2d	.	.
=90	=90	=90	=90
2F	2d]	0r	0r
2E	2e	.	.
1F	2c	.	.
.	4B	.	.
.	4A	.	.
=91	=91	=91	=91
1G	1B	0r	0r
2r	[1A	.	.
[2F	.	.	.
=92	=92	=92	=92
2F]	1A]	0r	0r
2D	.	.	.
2E	1c	.	.
[2F	.	.	.
=93	=93	=93	=93
2F]	2A	0r	0r
2G	2B	.	.
2E	4c	.	.
.	4B	.	.
[2F	4A	.	.
.	4G	.	.
=94	=94	=94	=94
2F]	2A	0r	0r
4E	1d	.	.
4D	.	.	.
1E	.	.	.
.	2c#i	.	.
=95	=95	=95	=95
0D	1d	0r	0r
.	2r	.	.
.	[2A	.	.
=96	=96	=96	=96
1r	2A]	0r	0r
.	2G	.	.
1D	2.A	.	.
.	4B	.	.
=97	=97	=97	=97
1C	2c	0r	0r
.	2.G	.	.
1E	.	.	.
.	4A	.	.
.	4B	.	.
.	4c	.	.
=98	=98	=98	=98
1F	2d	0r	0r
.	2.c	.	.
1E	.	.	.
.	4B	.	.
.	4G	.	.
.	4A	.	.
=99	=99	=99	=99
1D	2B	0r	0r
.	1A	.	.
2.AA	.	.	.
.	4G	.	.
4BB	4F	.	.
=100	=100	=100	=100
4C	4E	0r	0r
4D	4F	.	.
4E	4G	.	.
4F	4A	.	.
2.G	4B	.	.
.	4c	.	.
.	[2d	.	.
4F	.	.	.
=101	=101	=101	=101
4D	4d]	0r	0r
4E	4c	.	.
2F	4A	.	.
.	4B	.	.
4C	2c	.	.
4D	.	.	.
4E	4G	.	.
4F	4A	.	.
=102	=102	=102	=102
4G	4B	0r	0r
4E	4c	.	.
4F	4d	.	.
4G	4B	.	.
2A	2c	.	.
[2G	[2B	.	.
=103	=103	=103	=103
4G]	4B]	0r	0r
4F	4A	.	.
2D	1d	.	.
1E	.	.	.
.	2c#i	.	.
=104	=104	=104	=104
0Dl	0dl	0r	0r
=105||	=105||	=105||	=105||
*M2/1	*M2/1	*M2/1	*M2/1
*met(C|)	*met(C|)	*met(C|)	*met(C|)
!!section: Qui tollis
!!!OMD: Qui tollis
0r	2.E	1r	0r
.	4F	.	.
.	2G	[1e	.
.	[2A	.	.
=106	=106	=106	=106
0r	2A]	1e]	0r
.	2G	.	.
.	1A	1c	.
=107	=107	=107	=107
2.D	2.F	1d	0r
4E	4G	.	.
2F	2A	[1d	.
[2G	[2B-i	.	.
=108	=108	=108	=108
2G]	2B-]	1d]	0r
2F	2A	.	.
1G	1B-i	1d	.
=109	=109	=109	=109
1A	2A	1c	2.e
.	2c	.	.
.	.	.	4f
[1E	2.B	[1e	2g
.	.	.	[2a
.	4A	.	.
=110	=110	=110	=110
1E]	2B	1e]	2a]
.	2c	.	2g
1D	2.F	[1f	1a
.	4E	.	.
=111	=111	=111	=111
2D	4F	2f]	2r
.	4G	.	.
2C	1A	2e	2a
1BB	.	1d	2b
.	2G	.	2b
=112	=112	=112	=112
1AA	1A	1c	1cc
1r	[1F	2r	1a
.	.	2d	.
=113	=113	=113	=113
2r	1F]	1d	2r
2D	.	.	2a
2F	1r	2.c	2a
2F	.	.	2a
.	.	4d	.
=114	=114	=114	=114
2E	0r	2e	2g
2D	.	1f	1a
2.F	.	.	.
.	.	4e	4g
4G	.	4d	4f
=115	=115	=115	=115
1A	2r	2c	4e
.	.	.	4d
.	2A	1d	2f
1AA	2A	.	2.e
.	2A	2c	.
.	.	.	4f
=116	=116	=116	=116
2r	2G	0d	4g
.	.	.	4e
2D	2A	.	2.f
1D	2.F	.	.
.	.	.	4g
.	.	.	4a
.	8EL	.	4f
.	8DJ	.	.
=117	=117	=117	=117
2.C	2.E	0r	1g
4D	4F	.	.
2E	2G	.	1c
[2F	2A	.	.
=118	=118	=118	=118
4F]	2D	0A	0r
4E	.	.	.
1D	2F	.	.
.	1E	.	.
2C	.	.	.
=119	=119	=119	=119
1D	1D	1F	0r
2r	1r	1G	.
2E	.	.	.
=120	=120	=120	=120
1C	1r	2G	0r
.	.	2.A	.
1D	[1A	.	.
.	.	4G	.
.	.	4F	.
.	.	4E	.
=121	=121	=121	=121
1D	1A]	2F	0r
.	.	2D	.
1D	1F	2A	.
.	.	2B	.
=122	=122	=122	=122
1C	1G	2.c	0e
.	.	4d	.
1E	1G	1B	.
=123	=123	=123	=123
1.F	2F	1A	1c
.	1A	.	.
.	.	2.D	1d
2E	2G	.	.
.	.	4E	.
=124	=124	=124	=124
2D	2F	4F	1d
.	.	4G	.
2C	2E	1A	.
1BB	2.D	.	1d
.	.	2G#i	.
.	4E	.	.
=125	=125	=125	=125
1AA	2F	2.A	1c
.	1E	.	.
.	.	4B	.
1r	.	2c	2e
.	2D	[2d	[2f
=126	=126	=126	=126
0r	1A	2d]	4f]
.	.	.	4e
.	.	1c	4d
.	.	.	4c
.	1G	.	1d
.	.	2B	.
=127	=127	=127	=127
1r	0C	1c	1c
[1AA	.	[1c	[1e
=128	=128	=128	=128
1AA]	0A	1c]	1e]
1AA	.	[1A	1c
=129	=129	=129	=129
1D	1F	1A]	1d
1GG	1G	1B	1d
=130	=130	=130	=130
2r	1G	2r	2r
2GG	.	2B	2d
2GG	2r	2B	2d
2GG	2G	2B	2d
=131	=131	=131	=131
1GG	2G	1B	1d
.	2G	.	.
[1AA	2E	1A	2.c
.	2F	.	.
.	.	.	4d
=132	=132	=132	=132
2AA]	2E	1c	2e
2FF	2A	.	2f
2AA	4G	2B	2e
.	4F	.	.
2BB	4F	2G	[2d
.	4E	.	.
=133	=133	=133	=133
1AA	1E	1A	2d]
.	.	.	2c#i
[1D	[1D	2B	1d
.	.	[2A	.
=134	=134	=134	=134
1D]	1D]	2A]	1d
.	.	4G	.
.	.	4F	.
1r	1r	1E	1g
=135	=135	=135	=135
0r	1r	2D	2f
.	.	1A	2e
.	1D	.	1f
.	.	[2d	.
=136	=136	=136	=136
1r	1E	2d]	1g
.	.	2B	.
1AA	2F	1c	1r
.	2E	.	.
=137	=137	=137	=137
1D	2.F	1d	0r
.	4E	.	.
2C	[1G	1r	.
2BB	.	.	.
=138	=138	=138	=138
1C	1G]	2r	1r
.	.	2c	.
1D	1r	2A	2f
.	.	2B	2d
=139	=139	=139	=139
1r	2r	2c	2e
.	2F	1A	1f
2r	2D	.	.
2C	2E	2G	2e
=140	=140	=140	=140
2AA	2F	2A	2c
2BB	2D	1G	1d
2C	1E	.	.
2AA	.	2A	2c
=141	=141	=141	=141
1BB	1D	4F	1d
.	.	4D	.
.	.	1d	.
1AA	2r	.	1e
.	2A	2c	.
=142	=142	=142	=142
1r	2A	1B	0r
.	2G	.	.
2D	2A	2r	.
2D	2F	2A	.
=143	=143	=143	=143
2C	1E	2A	0r
2E	.	2G	.
2F	1r	2A	.
[2D	.	2F	.
=144	=144	=144	=144
2D]	1A	1E	1r
2C	.	.	.
2.D	2A	2r	2r
.	2F	2A	2d
4C	.	.	.
=145	=145	=145	=145
2BB	2G	2B	2d
2AA	2.A	1c	2c
2C	.	.	2e
.	4G	.	.
[2D	4F	2A	[2f
.	4E	.	.
=146	=146	=146	=146
2D]	2F	1B	4f]
.	.	.	4e
2GG	2G	.	1d
1AA	1E	1A	.
.	.	.	2c#i
=147	=147	=147	=147
1D	1D	2.F	2d
.	.	.	2.a
.	.	4E	.
2r	1r	1D	.
.	.	.	4a
2D	.	.	2a
=148	=148	=148	=148
1G	2.d	0r	1b
.	4d	.	.
2F	2d	.	2a
2E	2d	.	2g
=149	=149	=149	=149
1F	2c	2r	1a
.	2A	2.d	.
1G	1B	.	1g
.	.	4d	.
.	.	2d	.
=150	=150	=150	=150
1r	0A	2e	1r
.	.	1c	.
1F	.	.	2r
.	.	2A	2a
=151	=151	=151	=151
2D	0r	1B	2f
2E	.	.	2g
1F	.	2A	2a
.	.	[2d	2f
=152	=152	=152	=152
1E	0r	2d]	1g
.	.	2c	.
[1D	.	2d	[1f
.	.	2A	.
=153	=153	=153	=153
1D]	2r	2.F	0f]
.	2A	.	.
.	.	4G	.
1D	2.F	2A	.
.	.	2B	.
.	4G	.	.
=154	=154	=154	=154
1C	2A	[0c	1e
.	1G	.	.
2E	.	.	2r
[2F	2F	.	2a
=155	=155	=155	=155
2F]	2A	1c]	2f
2E	2G	.	2g
1D	4F	2r	2a
.	4G	.	.
.	4A	2A	[2f
.	4B	.	.
=156	=156	=156	=156
1C	1c	2A	2f]
.	.	2G	1e
2D	2r	1B	.
2D	2F	.	2d
=157	=157	=157	=157
2C	2G	1c	1e
2E	2G	.	.
2F	2A	2d	1r
2E	2G	2e	.
=158	=158	=158	=158
1D	2A	1f	0r
.	2B	.	.
1C	1c	1e	.
=159	=159	=159	=159
0D	1r	0d	0f
.	1A	.	.
=160	=160	=160	=160
0E	1G	1B	0g
.	1B	1e	.
=161	=161	=161	=161
0C	0c	0e	0g
=162	=162	=162	=162
0D	[0Al	[0d	[0f
=163	=163	=163	=163
[0AAl	0A_	0d]	0f]
=164	=164	=164	=164
0AA]	0A]	0cl	0el
=165||	=165||	=165||	=165||
*M2/1	*M2/1	*M2/1	*M2/1
*met(C|)	*met(C|)	*met(C|)	*met(C|)
!!section: Cum Sancto Spiritu
!!!OMD: Cum Sancto Spiritu
1r	0r	0e	0r
1E	.	.	.
=166	=166	=166	=166
1.F	1r	1c	0r
.	1A	1d	.
2D	.	.	.
=167	=167	=167	=167
2.G	1.B	1d	1r
4F	.	.	.
1E	.	1e	1g
.	2G	.	.
=168	=168	=168	=168
0r	2.c	1.e	2g
.	.	.	2g
.	4B	.	.
.	4A	.	2a
.	4B	.	.
.	4c	2e	[2g
.	4A	.	.
=169	=169	=169	=169
0r	2B	2d	4g]
.	.	.	4f
.	2c	1c	2e
.	1G	.	1d
.	.	2B	.
=170	=170	=170	=170
2AA	2r	2.c	0c
2.C	2E	.	.
.	.	4d	.
.	2.G	2e	.
4C	.	.	.
[2C	.	2c	.
.	4G	.	.
=171	=171	=171	=171
2C]	1G	1d	1r
2BB	.	.	.
2.C	1A	1c	1e
4D	.	.	.
=172	=172	=172	=172
1E	1.G	2r	2.g
.	.	2B	.
.	.	.	4g
1r	.	2.d	1g
.	4F	.	.
.	4E	4d	.
=173	=173	=173	=173
1r	1F	1d	1a
2r	1E	2.e	1g
[2E	.	.	.
.	.	4d	.
=174	=174	=174	=174
2E]	2r	2c	1e
2.G	1E	4B	.
.	.	4A	.
.	.	1B	2r
4F	.	.	.
4E	[2G	.	[2e
4D	.	.	.
=175	=175	=175	=175
2C	4G]	2c	2e]
.	4F	.	.
2.E	4E	2C	2.g
.	4D	.	.
.	2.C	1G	.
4D	.	.	4f
4C	.	.	4e
4BB	4D	.	4d
=176	=176	=176	=176
1AA	2E	1A	2.c
.	2F	.	.
.	.	.	4d
2GG	2G	2B	2e
2FF	2A	2c	[2f
=177	=177	=177	=177
1BB-X	1D	2F	4f]
.	.	.	4e
.	.	2G	1d
1AA	1E	1A	.
.	.	.	2c#i
=178	=178	=178	=178
0GG	0G	0B-i	1d
.	.	.	2r
.	.	.	2d
=179	=179	=179	=179
1D	2r	1A	2.f
.	2D	.	.
.	.	.	4g
1r	2.F	2r	4a
.	.	.	4b
.	.	2A	[2cc
.	4G	.	.
=180	=180	=180	=180
2r	4A	2.c	4cc]
.	4B	.	4b
2AA	1c	.	2a
.	.	4d	.
2C	.	2e	2g
2D	2A	2f	2f
=181	=181	=181	=181
2E	1c	2e	2g
2F	.	2A	1a
2D	1B	2f	.
2E	.	2e	2g
=182	=182	=182	=182
2.F	2.A	2.c	2a
.	.	.	2.cc
4E	4B	4d	.
4C	2c	1e	.
4D	.	.	4b
4E	2G	.	[2b
4F	.	.	.
=183	=183	=183	=183
2G	3.B	3.d	4b]
.	.	.	4a
2D	6c	6e	2.a
.	3d	3f	.
2F	3.A	3.c	.
.	.	.	4g
2C	6B	6d	[2g
.	3c	3e	.
=184	=184	=184	=184
2E	2G	3.B	4g]
.	.	.	4f
2.D	2A	6c	2.f
.	.	3d	.
.	2F	3.A	.
4C	.	.	4e
2AA	2A	6B	[2e
.	.	3c	.
=185	=185	=185	=185
1BB	4G	2B	4e]
.	4F	.	4d
.	4E	2G	1d
.	4D	.	.
1AA	1E	[1Al	.
.	.	.	2c#i
=186	=186	=186	=186
0Dl	0Dl	0A]	0dl
==	==	==	==
*-	*-	*-	*-
!!!system-decoration: [*]
!!!RDF**kern: i = editorial accidental
!!!RDF**kern: l = terminal long
!!!ENC: Max Blistain
!!!END: 2025/10/27
!!!EED: Benjamin Ory
!!!EEV: 2025/10/27
!!!YEC: Copyright 2025 Benjamin Ory, All Rights Reserved
!!!ONB: Translated from MusicXML on 2025/10/27